Numix-Light-GalliumOS/16/status/yd-ind-idle.svg

<?xml version="1.0" encoding="UTF-8" standalone="no"?>
<!-- Created with Inkscape (http://www.inkscape.org/) -->

<svg
   xmlns:dc="http://purl.org/dc/elements/1.1/"
   xmlns:cc="http://creativecommons.org/ns#"
   xmlns:rdf="http://www.w3.org/1999/02/22-rdf-syntax-ns#"
   xmlns:svg="http://www.w3.org/2000/svg"
   xmlns="http://www.w3.org/2000/svg"
   xmlns:sodipodi="http://sodipodi.sourceforge.net/DTD/sodipodi-0.dtd"
   xmlns:inkscape="http://www.inkscape.org/namespaces/inkscape"
   id="svg2"
   version="1.1"
   inkscape:version="0.91 r"
   width="16"
   height="16"
   viewBox="0 0 16 16"
   sodipodi:docname="yd-ind-idle.svg">
  <metadata
     id="metadata8">
    <rdf:RDF>
      <cc:Work
         rdf:about="">
        <dc:format>image/svg+xml</dc:format>
        <dc:type
           rdf:resource="http://purl.org/dc/dcmitype/StillImage" />
        <dc:title />
      </cc:Work>
    </rdf:RDF>
  </metadata>
  <defs
     id="defs6" />
  <sodipodi:namedview
     pagecolor="#ffffff"
     bordercolor="#666666"
     borderopacity="1"
     objecttolerance="10"
     gridtolerance="10"
     guidetolerance="10"
     inkscape:pageopacity="0"
     inkscape:pageshadow="2"
     inkscape:window-width="1366"
     inkscape:window-height="747"
     id="namedview4"
     showgrid="true"
     showguides="false"
     inkscape:zoom="5.656854"
     inkscape:cx="-45.178814"
     inkscape:cy="13.346985"
     inkscape:window-x="0"
     inkscape:window-y="21"
     inkscape:window-maximized="1"
     inkscape:current-layer="svg2">
    <inkscape:grid
       type="xygrid"
       id="grid4142" />
  </sodipodi:namedview>
  <ellipse
     style="opacity:1;fill:#353535;fill-opacity:1;fill-rule:nonzero;stroke:none;stroke-width:1;stroke-linecap:square;stroke-linejoin:round;stroke-miterlimit:4;stroke-dasharray:none;stroke-dashoffset:0;stroke-opacity:1"
     id="path4138"
     cx="5.404037"
     cy="10.856308"
     rx="8.2623587"
     ry="2.4440589"
     transform="matrix(0.96527118,-0.26124998,0.2564075,0.96656877,0,0)" />
  <path
     style="opacity:1;fill:#353535;fill-opacity:1;fill-rule:evenodd;stroke:none;stroke-width:1px;stroke-linecap:butt;stroke-linejoin:miter;stroke-opacity:1"
     d="M 6.5843175,3.7981653 C 6.434067,3.8384231 6.1921776,3.9259725 6.0184173,4.0333965 5.6574652,4.2565485 5.2099534,4.6877245 5.0557232,4.8664454 4.8515775,5.1030081 4.639647,5.4716197 4.48102,5.739177 4.2868983,6.0666051 4.1999907,6.2575201 4.0392551,6.5043371 3.893307,6.7284461 3.737833,6.9474291 3.565802,7.1522011 3.480165,7.2541361 3.365709,7.3783281 3.2446459,7.5058741 4.3851329,6.9835821 5.7168729,6.5044241 7.1677471,6.1117471 8.6390035,5.7135521 10.047924,5.4543255 11.30744,5.3327717 11.147111,5.2850472 10.994686,5.2370596 10.875205,5.1936526 10.623838,5.1023299 10.37994,4.9903583 10.141492,4.8692472 9.8788842,4.735865 9.7081592,4.6139822 9.3763332,4.4274818 9.1051812,4.2750836 8.7373339,4.0618222 8.4422595,3.9590258 8.2193339,3.8813636 7.6161875,3.7317102 7.1920183,3.7189316 6.9878247,3.7127956 6.7079567,3.765038 6.5843175,3.7981668 Z"
     id="path4144"
     inkscape:connector-curvature="0"
     sodipodi:nodetypes="sssssscscssssss" />
</svg>

<svg xmlns="http://www.w3.org/2000/svg" viewBox="0 0 16 16">
 <ellipse cx="5.404" cy="10.856" rx="8.262" ry="2.444" transform="matrix(0.96527118,-0.26124998,0.2564075,0.96656877,0,0)" style="fill:#353535;opacity:1;fill-opacity:1;stroke:none;fill-rule:nonzero"/>
 <path d="m 6.584 3.798 c -0.15 0.04 -0.392 0.128 -0.566 0.235 -0.361 0.223 -0.808 0.654 -0.963 0.833 -0.204 0.237 -0.416 0.605 -0.575 0.873 -0.194 0.327 -0.281 0.518 -0.442 0.765 -0.146 0.224 -0.301 0.443 -0.473 0.648 -0.086 0.102 -0.2 0.226 -0.321 0.354 1.14 -0.522 2.472 -1 3.923 -1.394 1.471 -0.398 2.88 -0.657 4.14 -0.779 -0.16 -0.048 -0.313 -0.096 -0.432 -0.139 -0.251 -0.091 -0.495 -0.203 -0.734 -0.324 -0.263 -0.133 -0.433 -0.255 -0.765 -0.442 -0.271 -0.152 -0.639 -0.366 -0.934 -0.468 -0.223 -0.078 -0.826 -0.227 -1.25 -0.24 -0.204 -0.006 -0.484 0.046 -0.608 0.079" style="fill:#353535;opacity:1;fill-opacity:1;stroke:none;fill-rule:evenodd"/>
</svg>
